X: 26528
T: Michael Wiggins In Ireland
R: jig
M: 6/8
K: Cmajor
|:G|ced cAc|GAG GEG|CEG ceg|age d2 G|
ced cAc|GAG GEG|CEG ceg|fed c2:|
|:e|gec ceg|a2 g f2 e|fga gec|Bdd def|
gec ceg|a2 g f2 e|fag fed|ecc c2:|
|:f|ece dBd|cAc GEC|DED CEG|gfe d2 f|
ece dBd|cAc GEC|EFG Afe|dcB c2:|

